X:1
T:Shout the Tidings of Salvation
T:Frederick Schilling
T:Shout the Tidings of Salvation
T:Public Domain
T:Public Domain
C:Frederick Schilling
Z:Public Domain
%%score ( 1 2 ) ( 3 4 )
L:1/8
M:3/4
K:Bb
V:1 treble 
V:2 treble 
V:3 bass 
V:4 bass 
V:1
 F>F | [DFB]3 [DF] [CE][B,D] | [DF]2 [CE]2 [CE]>[CE] | [Ec]3 [EA] [EG][EA] | [DB]4 [EF]>[EF] | %5
w: 1.~Shout the|of sal- va- tion|To the a- gèd|and the young, Till|the pre- cious|
w: 2.~Shout the|of sal- va- tion|O’er the prair- ies|of the West, Till|each ga- th’ring|
w: 3.~Shout the|of sal- va- tion|O’er the is- lands|of the sea, Till,|in hum- ble|
w: 4.~Shout the|of sal- va- tion|Till the world shall|hear the call, And,|with joy- ous|
 [Dd]3 [Ec] [DB][FA] | [Ec]2 [EB]2 [FA]>[EG] | [DF]3 [DB] [EA][Ec] | [DB]4 ||"^Refrain" [DF]>[DF] | %10
w: in- vi- ta- tion|Wak- en ev- ’ry|heart and tongue. *|||
w: con- gre- ga- tion|With the gos- pel|sound is blest. Send|the|sound the|
w: a- do- ra- tion,|All to Christ shall|bow the knee. *|||
w: ac- clam- a- tion,|Crown the Sav- ior|Lord of all. *|||
 [EF]3 [EF] [EG][EF] | [Dd]4 [EB]>[EG] | [DF]3 [DF] [EG][EA] | [DB]4 |] %14
w: ||||
w: earth a- round. Send|the sound the|earth a- round. *||
w: ||||
w: ||||
V:2
 F>F | x6 | x6 | x6 | x6 | x6 | x6 | x6 | x4 || x2 | x6 | x6 | x6 | x4 |] %14
w: tid- ings||||||||||||||
w: tid- ings||||||||||||||
w: tid- ings||||||||||||||
w: tid- ings||||||||||||||
V:3
 F,>F, | [B,,F,]3 [B,,F,] [B,,F,][B,,F,] | [F,A,]2 [F,A,]2 [F,A,]>[F,A,] | %3
 [F,,F,A,]3 [F,,F,] [F,,F,][F,,F,] | [B,,F,]4 [F,A,]>[F,A,] | [B,,F,B,]3 [B,,F,] [B,,F,][B,,B,] | %6
 [E,G,]2 [E,G,]2 [E,B,]>[E,B,] | [F,B,]3 F, [F,,F,][F,,F,] | [B,,F,]4 || [B,,B,]>[D,B,] | %10
 [F,A,]3 [F,A,] [F,B,][F,A,] | ([B,,-F,B,-]3 [B,,^F,B,]) [E,G,]>[E,B,] | %12
 [F,B,]3 [F,B,] [F,A,][F,,F,] | [B,,F,]4 |] %14
V:4
 F,>F, | x6 | x6 | x6 | x6 | x6 | x6 | x3 F, x2 | x4 || x2 | x6 | x6 | x6 | x4 |] %14

